64x64/apps/firejail-ui.svg

<svg height="64" width="64" xmlns="http://www.w3.org/2000/svg"><rect height="53" opacity=".2" rx="2.65" width="53" x="5" y="7"/><rect fill="#ef4e4e" height="53" rx="2.65" width="53" x="5" y="6"/><path d="m7.65 6a2.645 2.645 0 0 0 -2.65 2.65v1a2.645 2.645 0 0 1 2.65-2.65h47.7a2.645 2.645 0 0 1 2.65 2.65v-1a2.645 2.645 0 0 0 -2.65-2.65z" fill="#f4f4f7" opacity=".1"/><path d="m31.5 6.5v52m-14-52v52m28-52v52" fill="none" stroke="#656565" stroke-linecap="round" stroke-width="5"/><path d="m5.5 17a2.5 2.5 0 1 0 0 5h52a2.5 2.5 0 1 0 0-5zm0 14a2.5 2.5 0 1 0 0 5h52a2.5 2.5 0 1 0 0-5zm0 14a2.5 2.5 0 1 0 0 5h52a2.5 2.5 0 1 0 0-5z" opacity=".2"/><path d="m57.5 32.5h-52m52-14h-52m52 28h-52" fill="none" stroke="#656565" stroke-linecap="round" stroke-width="5"/><path d="m26.5 10.5-1.414 2.586-2.586 1.414 2.586 1.414 1.414 2.586 1.414-2.586 2.586-1.414-2.586-1.414zm11 6-1.766 3.234-3.234 1.766 3.234 1.766 1.766 3.234 1.766-3.234 3.234-1.766-3.234-1.766zm-17.133 5.5-5.367 5.367 5.84 5.844 5.37-5.371zm7.817 7.816-5.368 5.368 20.817 20.816 5.367-5.367zm-11.684 7.684-1.059 1.941-1.941 1.059 1.941 1.063 1.059 1.937 1.059-1.938 1.941-1.062-1.941-1.059z" opacity=".2"/><path d="m26.5 9.5-1.414 2.586-2.586 1.414 2.586 1.414 1.414 2.586 1.414-2.586 2.586-1.414-2.586-1.414zm11 6-1.766 3.234-3.234 1.766 3.234 1.766 1.766 3.234 1.766-3.234 3.234-1.766-3.234-1.766zm-17.133 5.5-5.367 5.367 5.84 5.844 5.37-5.371-5.842-5.84zm7.817 7.816-5.368 5.368 20.817 20.816 5.367-5.367zm-11.684 7.684-1.059 1.941-1.941 1.059 1.941 1.063 1.059 1.937 1.059-1.938 1.941-1.062-1.941-1.059z" fill="#f4f4f7"/></svg>

<svg xmlns="http://www.w3.org/2000/svg" width="64" height="64" version="1"><rect style="opacity:.2" width="53" height="53" x="5" y="7" rx="2.65" ry="2.65"/><rect style="fill:#ef4e4e" width="53" height="53" x="5" y="6" rx="2.65" ry="2.65"/><path style="fill:#f4f4f7;opacity:.1" d="M7.65 6A2.645 2.645 0 0 0 5 8.65v1A2.645 2.645 0 0 1 7.65 7h47.7A2.645 2.645 0 0 1 58 9.65v-1A2.645 2.645 0 0 0 55.35 6H7.65z"/><path style="fill:none;stroke:#656565;stroke-width:5;stroke-linecap:round" d="M31.5 6.5v52M17.5 6.5v52M45.5 6.5v52"/><path style="opacity:.2" d="M5.5 17a2.5 2.5 0 1 0 0 5h52a2.5 2.5 0 1 0 0-5zm0 14a2.5 2.5 0 1 0 0 5h52a2.5 2.5 0 1 0 0-5zm0 14a2.5 2.5 0 1 0 0 5h52a2.5 2.5 0 1 0 0-5z"/><path style="fill:none;stroke:#656565;stroke-width:5;stroke-linecap:round" d="M57.5 32.5h-52M57.5 18.5h-52M57.5 46.5h-52"/><path style="opacity:.2" d="m26.5 10.5-1.414 2.586L22.5 14.5l2.586 1.414L26.5 18.5l1.414-2.586L30.5 14.5l-2.586-1.414zm11 6-1.766 3.234L32.5 21.5l3.234 1.766L37.5 26.5l1.766-3.234L42.5 21.5l-3.234-1.766zM20.367 22 15 27.367l5.84 5.844 5.37-5.371zm7.817 7.816-5.368 5.368L43.633 56 49 50.633zM16.5 37.5l-1.059 1.941L13.5 40.5l1.941 1.063L16.5 43.5l1.059-1.938L19.5 40.5l-1.941-1.059z"/><path style="fill:#f4f4f7" d="m26.5 9.5-1.414 2.586L22.5 13.5l2.586 1.414L26.5 17.5l1.414-2.586L30.5 13.5l-2.586-1.414L26.5 9.5zm11 6-1.766 3.234L32.5 20.5l3.234 1.766L37.5 25.5l1.766-3.234L42.5 20.5l-3.234-1.766L37.5 15.5zM20.367 21 15 26.367l5.84 5.844 5.37-5.371L20.368 21zm7.817 7.816-5.368 5.368L43.633 55 49 49.633 28.184 28.816zM16.5 36.5l-1.059 1.941L13.5 39.5l1.941 1.063L16.5 42.5l1.059-1.938L19.5 39.5l-1.941-1.059L16.5 36.5z"/></svg>
